public/svgs/thin/grip-lines.svg

<svg xmlns="http://www.w3.org/2000/svg" viewBox="0 0 448 512"><!-- Font Awesome Pro 6.0.0-alpha2 by @fontawesome - https://fontawesome.com License - https://fontawesome.com/license (Commercial License) --><path d="M8 200H440C444.406 200 448 196.406 448 192S444.406 184 440 184H8C3.594 184 0 187.594 0 192S3.594 200 8 200ZM440 312H8C3.594 312 0 315.594 0 320S3.594 328 8 328H440C444.406 328 448 324.406 448 320S444.406 312 440 312Z"/></svg>

<svg xmlns="http://www.w3.org/2000/svg" viewBox="0 0 448 512"><!--! Font Awesome Pro 6.5.1 by @fontawesome - https://fontawesome.com License - https://fontawesome.com/license (Commercial License) Copyright 2023 Fonticons, Inc. --><path d="M448 192c0-4.4-3.6-8-8-8L8 184c-4.4 0-8 3.6-8 8s3.6 8 8 8l432 0c4.4 0 8-3.6 8-8zm0 128c0-4.4-3.6-8-8-8L8 312c-4.4 0-8 3.6-8 8s3.6 8 8 8l432 0c4.4 0 8-3.6 8-8z"/></svg>
